!!!SOCIAL_FUNCTION:	war songs
!!!PDT:	1929
!!!OTL: No_134_The_Voice_of_the_Herald.krn
!!!REG: Southwest
!!!LANG: Non-Tone
!!!LING_GROUP: Uto-Aztecan
**kern
*staff1
*clefF4
*k[f#c#g#]
*M2/4
8E\
=1
4B\
8.B\L
16A\Jk
=2||
*M3/8
4.B\
=3
8A\
4E\
=4||
*M5/8
8A\L
16A\L
16E\J
8E\
8E\
16B\L
16A\JJ
=5||
*M3/4
8B\L
16B\L
16A\JJ
4F#\
8F#\L
16E\L
16D\JJ
=6||
*M2/4
8E\L
8E\J
8D/L
16BB/Jk
16r
=7||
*M3/4
4A\
4B\
8.B\L
16B\Jk
=8||
*M2/4
4A\
8F#\L
16F#\L
16D\JJ
=9
4E\
8BB\L
16E\L
16E\JJ
=10
2E\
==
*-
